X:4
T:Confusing Words
C:Armand Aromin
M:6/8
L:1/8
H:3/13/04
K:G
D || GBd BAG | B2 B B2 D | GBd BAG | A2 A A2 D |
GBd BAG | B2 B B2 d | fed cBA |1 GBd g2 D :|2 G3 G3 |
|: fff fed | cBc A2 c | ggg gag | f3 A2 B |
fff fed | cBc A2 c | ggg gdB | G3 G3 :|
